cc-by-sa/knowledge/modules/introducing_type/lessons/how_typefaces_are_designed_and_fonts_are_made/images/5Sidebearings.svg

<svg xmlns="http://www.w3.org/2000/svg" width="1920" height="1080" fill="none"><path fill="#3C4043" d="M557.736 745.916h55.987V332.663h-55.987v176.518H344.987V332.663H289v413.253h55.987V562.904h212.749v183.012ZM878.734 745.916h51.272V569.398c0-76.747-42.432-127.518-127.296-127.518-40.075 0-74.256 10.036-103.723 30.698v50.181c29.467-23.024 59.523-33.06 93.704-33.06 54.808 0 84.275 27.747 84.275 69.662v7.085H811.55c-86.043 0-133.19 37.193-133.19 99.18 0 54.314 35.36 87.374 92.526 87.374 43.61 0 84.274-20.663 107.848-57.855v50.771Zm-149.102-86.193c0-34.831 27.699-52.542 79.56-52.542h68.952v24.795c0 40.735-44.2 76.747-92.525 76.747-34.771 0-55.987-18.301-55.987-49ZM1221.97 585.928v159.988h55.99V571.169c0-80.88-45.97-129.289-111.39-129.289-44.79 0-80.74 24.204-99.6 64.349v-57.265h-54.21v296.952h55.39V591.831c0-60.807 33.01-100.361 78.38-100.361 47.15 0 75.44 36.602 75.44 94.458ZM1482.36 753c38.9 0 76.03-23.614 100.78-56.084v49H1635V312h-55.4v183.012c-24.75-31.879-60.7-53.132-100.18-53.132-74.85 0-139.09 67.891-139.09 155.265 0 88.554 65.42 155.855 142.03 155.855Zm-85.45-155.265c0-59.036 40.66-106.265 92.52-106.265 53.04 0 93.12 46.638 93.12 106.265 0 59.036-40.08 105.084-93.12 105.084-51.86 0-92.52-46.638-92.52-105.084Z"/><path fill="#1A73E8" d="M971 219h42v644h-42V219Z"/><path fill="#D2E3FC" d="M929 219h42v644h-42V219Z"/><path fill="#1A73E8" d="M1276 219h41v644h-41V219Z"/><path fill="#D2E3FC" d="M1317 219h23v644h-23V219ZM1635 218h41v645h-41V218Z"/><path fill="#1A73E8" d="M244 218h45v644h-45V218ZM612 218h46v644h-46V218Z"/><path fill="#D2E3FC" d="M658 218h18v644h-18V218Z"/></svg>

<svg width="1920" height="1080" viewBox="0 0 1920 1080" fill="none" xmlns="http://www.w3.org/2000/svg">
<path d="M557.736 745.916H613.723V332.663H557.736V509.181H344.987V332.663H289V745.916H344.987V562.904H557.736V745.916Z" fill="#3C4043"/>
<path d="M878.734 745.916H930.006V569.398C930.006 492.651 887.574 441.88 802.71 441.88C762.635 441.88 728.454 451.916 698.987 472.578V522.759C728.454 499.735 758.51 489.699 792.691 489.699C847.499 489.699 876.966 517.446 876.966 559.361V566.446H811.55C725.507 566.446 678.36 603.639 678.36 665.626C678.36 719.94 713.72 753 770.886 753C814.496 753 855.16 732.337 878.734 695.145V745.916ZM729.632 659.723C729.632 624.892 757.331 607.181 809.192 607.181H878.144V631.976C878.144 672.711 833.944 708.723 785.619 708.723C750.848 708.723 729.632 690.422 729.632 659.723Z" fill="#3C4043"/>
<path d="M1221.97 585.928V745.916H1277.96V571.169C1277.96 490.289 1231.99 441.88 1166.57 441.88C1121.78 441.88 1085.83 466.084 1066.97 506.229V448.964H1012.76V745.916H1068.15V591.831C1068.15 531.024 1101.16 491.47 1146.53 491.47C1193.68 491.47 1221.97 528.072 1221.97 585.928Z" fill="#3C4043"/>
<path d="M1482.36 753C1521.26 753 1558.39 729.386 1583.14 696.916V745.916H1635V312H1579.6V495.012C1554.85 463.133 1518.9 441.88 1479.42 441.88C1404.57 441.88 1340.33 509.771 1340.33 597.145C1340.33 685.699 1405.75 753 1482.36 753ZM1396.91 597.735C1396.91 538.699 1437.57 491.47 1489.43 491.47C1542.47 491.47 1582.55 538.108 1582.55 597.735C1582.55 656.771 1542.47 702.819 1489.43 702.819C1437.57 702.819 1396.91 656.181 1396.91 597.735Z" fill="#3C4043"/>
<path d="M971 219H1013V863H971V219Z" fill="#1A73E8"/>
<path d="M929 219H971V863H929V219Z" fill="#D2E3FC"/>
<path d="M1276 219H1317V863H1276V219Z" fill="#1A73E8"/>
<path d="M1317 219H1340V863H1317V219Z" fill="#D2E3FC"/>
<path d="M1635 218H1676V863H1635V218Z" fill="#D2E3FC"/>
<path d="M244 218H289V862H244V218Z" fill="#1A73E8"/>
<path d="M612 218H658V862H612V218Z" fill="#1A73E8"/>
<path d="M658 218H676V862H658V218Z" fill="#D2E3FC"/>
</svg>
